; generated by PrusaSlicer 2.2.0+ on 2020-12-10 at 09:48:54 UTC

; 

; external perimeters extrusion width = 0.45mm
; perimeters extrusion width = 0.45mm
; infill extrusion width = 0.45mm
; solid infill extrusion width = 0.45mm
; top infill extrusion width = 0.40mm
; support material extrusion width = 0.38mm
; first layer extrusion width = 0.42mm

; external perimeters extrusion width = 0.45mm
; perimeters extrusion width = 0.45mm
; infill extrusion width = 0.45mm
; solid infill extrusion width = 0.45mm
; top infill extrusion width = 0.40mm
; support material extrusion width = 0.38mm
; first layer extrusion width = 0.42mm

; external perimeters extrusion width = 0.45mm
; perimeters extrusion width = 0.45mm
; infill extrusion width = 0.45mm
; solid infill extrusion width = 0.45mm
; top infill extrusion width = 0.40mm
; support material extrusion width = 0.38mm
; first layer extrusion width = 0.42mm

M201 X500 Y500 Z100 E5000 ; sets maximum accelerations, mm/sec^2
M203 X500 Y500 Z10 E60 ; sets maximum feedrates, mm/sec
M204 P500 R1000 T500 ; sets acceleration (P, T) and retract acceleration (R), mm/sec^2
M205 X8.00 Y8.00 Z0.40 E5.00 ; sets the jerk limits, mm/sec
M205 S0 T0 ; sets the minimum extruding and travel feed rate, mm/sec
M107
G90 ; use absolute coordinates
M83 ; extruder relative mode
M104 S215 ; set extruder temp
M140 S40 ; set bed temp
M190 S40 ; wait for bed temp
M109 S215 ; wait for extruder temp
G28 ; home all
G1 Z2 F240
G1 X2 Y10 F3000
G1 Z0.28 F240
G92 E0.0
G1 Y190 E15.0 F1500.0 ; intro line
G1 X2.3 F5000
G1 Y10 E30 F1200.0 ; intro line
G92 E0.0
G21 ; set units to millimeters
G90 ; use absolute coordinates
M83 ; use relative distances for extrusion
; Filament gcode
;BEFORE_LAYER_CHANGE
;0.2


G1 E-5.00000 F3600.00000
G1 Z0.200 F9000.000
;AFTER_LAYER_CHANGE
;0.2
G1 X128.334 Y44.247
G1 E5.00000 F2400.00000
G1 F1200.000
G1 X129.271 Y43.364 E0.04037
G1 X130.063 Y42.832 E0.02991
G1 X130.730 Y42.517 E0.02315
G1 X131.541 Y42.284 E0.02645
G1 X132.572 Y42.131 E0.03269
G1 X194.858 Y42.125 E1.95293
G1 X196.071 Y42.274 E0.03833
G1 X197.022 Y42.552 E0.03105
G1 X197.761 Y42.932 E0.02605
G1 X198.820 Y43.707 E0.04115
G1 X199.400 Y44.344 E0.02702
G1 X200.134 Y45.472 E0.04219
G1 X200.436 Y46.246 E0.02605
G1 X200.675 Y47.379 E0.03631
G1 X206.589 Y125.142 E2.44524
G1 X206.600 Y201.716 E2.40090
G1 X206.509 Y202.583 E0.02734
G1 X206.250 Y203.410 E0.02718
G1 X205.603 Y204.476 E0.03909
G1 X204.686 Y205.313 E0.03893
G1 X203.571 Y205.859 E0.03893
G1 X202.348 Y206.070 E0.03893
G1 X126.786 Y206.072 E2.36918
G1 X125.919 Y205.981 E0.02734
G1 X125.091 Y205.722 E0.02718
G1 X124.034 Y205.082 E0.03876
G1 X123.197 Y204.171 E0.03876
G1 X122.649 Y203.063 E0.03876
G1 X122.432 Y201.841 E0.03893
G1 X122.430 Y125.391 E2.39703
G1 X126.951 Y47.715 E2.43962
G1 X127.120 Y46.640 E0.03411
G1 X127.407 Y45.730 E0.02992
G1 X127.722 Y45.126 E0.02137
G1 X128.300 Y44.297 E0.03168
G1 E-3.50000 F3600.00000
G1 F7200.000
G1 X129.271 Y43.364 E-0.63948
G1 X130.063 Y42.832 E-0.45308
G1 X130.695 Y42.533 E-0.33244
G1 E-0.07500 F3600.00000
G1 X125.759 Y123.864 F9000.000
G1 E5.00000 F2400.00000
G1 F1200.000
G1 X126.184 Y123.653 E0.01488
G1 X126.579 Y123.568 E0.01266
G1 X127.809 Y123.568 E0.03859
G1 X127.938 Y123.590 E0.00410
G1 X128.067 Y123.568 E0.00410
G1 X129.318 Y123.568 E0.03923
G1 X129.446 Y123.590 E0.00410
G1 X129.575 Y123.568 E0.00410
G1 X130.826 Y123.568 E0.03923
G1 X130.955 Y123.590 E0.00410
G1 X131.083 Y123.568 E0.00410
G1 X132.334 Y123.568 E0.03923
G1 X132.463 Y123.590 E0.00410
G1 X132.591 Y123.568 E0.00410
G1 X133.843 Y123.568 E0.03923
G1 X133.971 Y123.590 E0.00410
G1 X134.100 Y123.568 E0.00410
G1 X135.351 Y123.568 E0.03923
G1 X135.480 Y123.590 E0.00410
G1 X135.608 Y123.568 E0.00410
G1 X136.859 Y123.568 E0.03923
G1 X136.988 Y123.590 E0.00410
G1 X137.116 Y123.568 E0.00410
G1 X138.368 Y123.568 E0.03923
G1 X138.496 Y123.590 E0.00410
G1 X138.625 Y123.568 E0.00410
G1 X139.876 Y123.568 E0.03923
G1 X140.004 Y123.590 E0.00410
G1 X140.133 Y123.568 E0.00410
G1 X141.384 Y123.568 E0.03923
G1 X141.513 Y123.590 E0.00410
G1 X141.641 Y123.568 E0.00410
G1 X142.892 Y123.568 E0.03923
G1 X143.021 Y123.590 E0.00410
G1 X143.150 Y123.568 E0.00410
G1 X144.401 Y123.568 E0.03923
G1 X144.529 Y123.590 E0.00410
G1 X144.658 Y123.568 E0.00410
G1 X145.909 Y123.568 E0.03923
G1 X146.038 Y123.590 E0.00410
G1 X146.166 Y123.568 E0.00410
G1 X147.417 Y123.568 E0.03923
G1 X147.546 Y123.590 E0.00410
G1 X147.675 Y123.568 E0.00410
G1 X148.926 Y123.568 E0.03923
G1 X149.054 Y123.590 E0.00410
G1 X149.183 Y123.568 E0.00410
G1 X150.434 Y123.568 E0.03923
G1 X150.563 Y123.590 E0.00410
G1 X150.691 Y123.568 E0.00410
G1 X151.942 Y123.568 E0.03923
G1 X152.071 Y123.590 E0.00410
G1 X152.200 Y123.568 E0.00410
G1 X153.451 Y123.568 E0.03923
G1 X153.579 Y123.590 E0.00410
G1 X153.708 Y123.568 E0.00410
G1 X154.959 Y123.568 E0.03923
G1 X155.088 Y123.590 E0.00410
G1 X155.216 Y123.568 E0.00410
G1 X156.467 Y123.568 E0.03923
G1 X156.596 Y123.590 E0.00410
G1 X156.725 Y123.568 E0.00410
G1 X157.976 Y123.568 E0.03923
G1 X158.104 Y123.590 E0.00410
G1 X158.233 Y123.568 E0.00410
G1 X159.484 Y123.568 E0.03923
G1 X159.613 Y123.590 E0.00410
G1 X159.741 Y123.568 E0.00410
G1 X160.992 Y123.568 E0.03923
G1 X161.121 Y123.590 E0.00410
G1 X161.250 Y123.568 E0.00410
G1 X162.501 Y123.568 E0.03923
G1 X162.629 Y123.590 E0.00410
G1 X162.758 Y123.568 E0.00410
G1 X164.009 Y123.568 E0.03923
G1 X164.138 Y123.590 E0.00410
G1 X164.266 Y123.568 E0.00410
G1 X165.517 Y123.568 E0.03923
G1 X165.646 Y123.590 E0.00410
G1 X165.774 Y123.568 E0.00410
G1 X167.026 Y123.568 E0.03923
G1 X167.154 Y123.590 E0.00410
G1 X167.283 Y123.568 E0.00410
G1 X168.534 Y123.568 E0.03923
G1 X168.662 Y123.590 E0.00410
G1 X168.791 Y123.568 E0.00410
G1 X170.042 Y123.568 E0.03923
G1 X170.171 Y123.590 E0.00410
G1 X170.299 Y123.568 E0.00410
G1 X171.551 Y123.568 E0.03923
G1 X171.679 Y123.590 E0.00410
G1 X171.808 Y123.568 E0.00410
G1 X173.059 Y123.568 E0.03923
G1 X173.187 Y123.590 E0.00410
G1 X173.316 Y123.568 E0.00410
G1 X174.567 Y123.568 E0.03923
G1 X174.696 Y123.590 E0.00410
G1 X174.824 Y123.568 E0.00410
G1 X176.075 Y123.568 E0.03923
G1 X176.204 Y123.590 E0.00410
G1 X176.333 Y123.568 E0.00410
G1 X177.584 Y123.568 E0.03923
G1 X177.712 Y123.590 E0.00410
G1 X177.841 Y123.568 E0.00410
G1 X179.092 Y123.568 E0.03923
G1 X179.221 Y123.590 E0.00410
G1 X179.349 Y123.568 E0.00410
G1 X180.600 Y123.568 E0.03923
G1 X180.729 Y123.590 E0.00410
G1 X180.858 Y123.568 E0.00410
G1 X182.109 Y123.568 E0.03923
G1 X182.237 Y123.590 E0.00410
G1 X182.366 Y123.568 E0.00410
G1 X183.617 Y123.568 E0.03923
G1 X183.746 Y123.590 E0.00410
G1 X183.874 Y123.568 E0.00410
G1 X185.125 Y123.568 E0.03923
G1 X185.254 Y123.590 E0.00410
G1 X185.383 Y123.568 E0.00410
G1 X186.634 Y123.568 E0.03923
G1 X186.762 Y123.590 E0.00410
G1 X186.891 Y123.568 E0.00410
G1 X188.142 Y123.568 E0.03923
G1 X188.271 Y123.590 E0.00410
G1 X188.399 Y123.568 E0.00410
G1 X189.650 Y123.568 E0.03923
G1 X189.779 Y123.590 E0.00410
G1 X189.908 Y123.568 E0.00410
G1 X191.159 Y123.568 E0.03923
G1 X191.287 Y123.590 E0.00410
G1 X191.416 Y123.568 E0.00410
G1 X192.667 Y123.568 E0.03923
G1 X192.796 Y123.590 E0.00410
G1 X192.924 Y123.568 E0.00410
G1 X194.175 Y123.568 E0.03923
G1 X194.304 Y123.590 E0.00410
G1 X194.433 Y123.568 E0.00410
G1 X195.684 Y123.568 E0.03923
G1 X195.812 Y123.590 E0.00410
G1 X195.941 Y123.568 E0.00410
G1 X197.192 Y123.568 E0.03923
G1 X197.321 Y123.590 E0.00410
G1 X197.449 Y123.568 E0.00410
G1 X198.690 Y123.568 E0.03891
G1 X198.862 Y123.597 E0.00547
G1 X199.593 Y123.587 E0.02291
G1 X199.724 Y123.568 E0.00416
G1 X200.963 Y123.568 E0.03884
G1 X201.091 Y123.590 E0.00410
G1 X201.220 Y123.568 E0.00410
G1 X202.476 Y123.568 E0.03940
G1 X203.039 Y123.733 E0.01838
G1 X203.299 Y123.882 E0.00938
G1 X203.790 Y124.377 E0.02188
G1 X203.898 Y124.539 E0.00611
G1 X204.108 Y125.200 E0.02173
G1 X204.108 Y201.997 E2.40792
G1 X203.967 Y202.455 E0.01500
G1 X203.863 Y202.631 E0.00643
G1 X203.408 Y203.098 E0.02044
G1 X203.257 Y203.207 E0.00581
G1 X202.701 Y203.393 E0.01839
G1 X201.879 Y203.381 E0.02579
G1 X201.707 Y203.411 E0.00547
G1 X200.466 Y203.411 E0.03891
G1 X200.337 Y203.388 E0.00410
G1 X200.209 Y203.411 E0.00410
G1 X198.957 Y203.411 E0.03923
G1 X198.829 Y203.388 E0.00410
G1 X198.700 Y203.411 E0.00410
G1 X197.449 Y203.411 E0.03923
G1 X197.321 Y203.388 E0.00410
G1 X197.192 Y203.411 E0.00410
G1 X195.941 Y203.411 E0.03923
G1 X195.812 Y203.388 E0.00410
G1 X195.684 Y203.411 E0.00410
G1 X194.433 Y203.411 E0.03923
G1 X194.304 Y203.388 E0.00410
G1 X194.175 Y203.411 E0.00410
G1 X192.924 Y203.411 E0.03923
G1 X192.796 Y203.388 E0.00410
G1 X192.667 Y203.411 E0.00410
G1 X191.416 Y203.411 E0.03923
G1 X191.287 Y203.388 E0.00410
G1 X191.159 Y203.411 E0.00410
G1 X189.908 Y203.411 E0.03923
G1 X189.779 Y203.388 E0.00410
G1 X189.650 Y203.411 E0.00410
G1 X188.399 Y203.411 E0.03923
G1 X188.271 Y203.388 E0.00410
G1 X188.142 Y203.411 E0.00410
G1 X186.891 Y203.411 E0.03923
G1 X186.762 Y203.388 E0.00410
G1 X186.634 Y203.411 E0.00410
G1 X185.383 Y203.411 E0.03923
G1 X185.254 Y203.388 E0.00410
G1 X185.125 Y203.411 E0.00410
G1 X183.874 Y203.411 E0.03923
G1 X183.746 Y203.388 E0.00410
G1 X183.617 Y203.411 E0.00410
G1 X182.366 Y203.411 E0.03923
G1 X182.237 Y203.388 E0.00410
G1 X182.109 Y203.411 E0.00410
G1 X180.858 Y203.411 E0.03923
G1 X180.729 Y203.388 E0.00410
G1 X180.600 Y203.411 E0.00410
G1 X179.349 Y203.411 E0.03923
G1 X179.221 Y203.388 E0.00410
G1 X179.092 Y203.411 E0.00410
G1 X177.841 Y203.411 E0.03923
G1 X177.712 Y203.388 E0.00410
G1 X177.584 Y203.411 E0.00410
G1 X176.333 Y203.411 E0.03923
G1 X176.204 Y203.388 E0.00410
G1 X176.075 Y203.411 E0.00410
G1 X174.824 Y203.411 E0.03923
G1 X174.696 Y203.388 E0.00410
G1 X174.567 Y203.411 E0.00410
G1 X173.316 Y203.411 E0.03923
G1 X173.187 Y203.388 E0.00410
G1 X173.059 Y203.411 E0.00410
G1 X171.808 Y203.411 E0.03923
G1 X171.679 Y203.388 E0.00410
G1 X171.551 Y203.411 E0.00410
G1 X170.299 Y203.411 E0.03923
G1 X170.171 Y203.388 E0.00410
G1 X170.042 Y203.411 E0.00410
G1 X168.791 Y203.411 E0.03923
G1 X168.662 Y203.388 E0.00410
G1 X168.534 Y203.411 E0.00410
G1 X167.283 Y203.411 E0.03923
G1 X167.154 Y203.388 E0.00410
G1 X167.026 Y203.411 E0.00410
G1 X165.774 Y203.411 E0.03923
G1 X165.646 Y203.388 E0.00410
G1 X165.517 Y203.411 E0.00410
G1 X164.266 Y203.411 E0.03923
G1 X164.138 Y203.388 E0.00410
G1 X164.009 Y203.411 E0.00410
G1 X162.758 Y203.411 E0.03923
G1 X162.629 Y203.388 E0.00410
G1 X162.501 Y203.411 E0.00410
G1 X161.250 Y203.411 E0.03923
G1 X161.121 Y203.388 E0.00410
G1 X160.992 Y203.411 E0.00410
G1 X159.741 Y203.411 E0.03923
G1 X159.613 Y203.388 E0.00410
G1 X159.484 Y203.411 E0.00410
G1 X158.233 Y203.411 E0.03923
G1 X158.104 Y203.388 E0.00410
G1 X157.976 Y203.411 E0.00410
G1 X156.725 Y203.411 E0.03923
G1 X156.596 Y203.388 E0.00410
G1 X156.467 Y203.411 E0.00410
G1 X155.216 Y203.411 E0.03923
G1 X155.088 Y203.388 E0.00410
G1 X154.959 Y203.411 E0.00410
G1 X153.708 Y203.411 E0.03923
G1 X153.579 Y203.388 E0.00410
G1 X153.451 Y203.411 E0.00410
G1 X152.200 Y203.411 E0.03923
G1 X152.071 Y203.388 E0.00410
G1 X151.942 Y203.411 E0.00410
G1 X150.691 Y203.411 E0.03923
G1 X150.563 Y203.388 E0.00410
G1 X150.434 Y203.411 E0.00410
G1 X149.183 Y203.411 E0.03923
G1 X149.054 Y203.388 E0.00410
G1 X148.926 Y203.411 E0.00410
G1 X147.675 Y203.411 E0.03923
G1 X147.546 Y203.388 E0.00410
G1 X147.417 Y203.411 E0.00410
G1 X146.166 Y203.411 E0.03923
G1 X146.038 Y203.388 E0.00410
G1 X145.909 Y203.411 E0.00410
G1 X144.658 Y203.411 E0.03923
G1 X144.529 Y203.388 E0.00410
G1 X144.401 Y203.411 E0.00410
G1 X143.150 Y203.411 E0.03923
G1 X143.021 Y203.388 E0.00410
G1 X142.892 Y203.411 E0.00410
G1 X141.641 Y203.411 E0.03923
G1 X141.513 Y203.388 E0.00410
G1 X141.384 Y203.411 E0.00410
G1 X140.133 Y203.411 E0.03923
G1 X140.004 Y203.388 E0.00410
G1 X139.876 Y203.411 E0.00410
G1 X138.625 Y203.411 E0.03923
G1 X138.496 Y203.388 E0.00410
G1 X138.368 Y203.411 E0.00410
G1 X137.116 Y203.411 E0.03923
G1 X136.988 Y203.388 E0.00410
G1 X136.859 Y203.411 E0.00410
G1 X135.608 Y203.411 E0.03923
G1 X135.479 Y203.388 E0.00410
G1 X135.351 Y203.411 E0.00410
G1 X134.100 Y203.411 E0.03923
G1 X133.971 Y203.388 E0.00410
G1 X133.843 Y203.411 E0.00410
G1 X132.591 Y203.411 E0.03923
G1 X132.463 Y203.388 E0.00410
G1 X132.334 Y203.411 E0.00410
G1 X131.083 Y203.411 E0.03923
G1 X130.955 Y203.388 E0.00410
G1 X130.826 Y203.411 E0.00410
G1 X129.587 Y203.411 E0.03884
G1 X129.456 Y203.392 E0.00416
G1 X128.725 Y203.381 E0.02291
G1 X128.553 Y203.411 E0.00547
G1 X127.322 Y203.411 E0.03860
G1 X127.150 Y203.381 E0.00547
G1 X126.343 Y203.393 E0.02530
G1 X126.056 Y203.332 E0.00922
G1 X125.632 Y203.109 E0.01502
G1 X125.215 Y202.691 E0.01851
G1 X125.106 Y202.542 E0.00579
G1 X124.921 Y201.996 E0.01806
G1 X124.921 Y125.199 E2.40791
G1 X125.091 Y124.624 E0.01882
G1 X125.246 Y124.370 E0.00931
G1 X125.716 Y123.906 E0.02070
G1 X125.444 Y124.759 F9000.000
G1 F1200.000
G1 X125.527 Y124.622 E0.00501
G1 X126.000 Y124.156 E0.02080
G1 X126.323 Y124.003 E0.01122
G1 X126.598 Y123.945 E0.00882
G1 X127.786 Y123.945 E0.03723
G1 X127.938 Y123.978 E0.00488
G1 X128.090 Y123.945 E0.00488
G1 X129.294 Y123.945 E0.03774
G1 X129.446 Y123.978 E0.00488
G1 X129.599 Y123.945 E0.00488
G1 X130.802 Y123.945 E0.03774
G1 X130.955 Y123.978 E0.00488
G1 X131.107 Y123.945 E0.00488
G1 X132.311 Y123.945 E0.03774
G1 X132.463 Y123.978 E0.00488
G1 X132.615 Y123.945 E0.00488
G1 X133.819 Y123.945 E0.03774
G1 X133.971 Y123.978 E0.00488
G1 X134.123 Y123.945 E0.00488
G1 X135.327 Y123.945 E0.03774
G1 X135.480 Y123.978 E0.00488
G1 X135.632 Y123.945 E0.00488
G1 X136.836 Y123.945 E0.03774
G1 X136.988 Y123.978 E0.00488
G1 X137.140 Y123.945 E0.00488
G1 X138.344 Y123.945 E0.03774
G1 X138.496 Y123.978 E0.00488
G1 X138.648 Y123.945 E0.00488
G1 X139.852 Y123.945 E0.03774
G1 X140.004 Y123.978 E0.00488
G1 X140.157 Y123.945 E0.00488
G1 X141.361 Y123.945 E0.03774
G1 X141.513 Y123.978 E0.00488
G1 X141.665 Y123.945 E0.00488
G1 X142.869 Y123.945 E0.03774
G1 X143.021 Y123.978 E0.00488
G1 X143.173 Y123.945 E0.00488
G1 X144.377 Y123.945 E0.03774
G1 X144.529 Y123.978 E0.00488
G1 X144.682 Y123.945 E0.00488
G1 X145.885 Y123.945 E0.03774
G1 X146.038 Y123.978 E0.00488
G1 X146.190 Y123.945 E0.00488
G1 X147.394 Y123.945 E0.03774
G1 X147.546 Y123.978 E0.00488
G1 X147.698 Y123.945 E0.00488
G1 X148.902 Y123.945 E0.03774
G1 X149.054 Y123.978 E0.00488
G1 X149.207 Y123.945 E0.00488
G1 X150.410 Y123.945 E0.03774
G1 X150.563 Y123.978 E0.00488
G1 X150.715 Y123.945 E0.00488
G1 X151.919 Y123.945 E0.03774
G1 X152.071 Y123.978 E0.00488
G1 X152.223 Y123.945 E0.00488
G1 X153.427 Y123.945 E0.03774
G1 X153.579 Y123.978 E0.00488
G1 X153.732 Y123.945 E0.00488
G1 X154.935 Y123.945 E0.03774
G1 X155.088 Y123.978 E0.00488
G1 X155.240 Y123.945 E0.00488
G1 X156.444 Y123.945 E0.03774
G1 X156.596 Y123.978 E0.00488
G1 X156.748 Y123.945 E0.00488
G1 X157.952 Y123.945 E0.03774
G1 X158.104 Y123.978 E0.00488
G1 X158.257 Y123.945 E0.00488
G1 X159.460 Y123.945 E0.03774
G1 X159.613 Y123.978 E0.00488
G1 X159.765 Y123.945 E0.00488
G1 X160.969 Y123.945 E0.03774
G1 X161.121 Y123.978 E0.00488
G1 X161.273 Y123.945 E0.00488
G1 X162.477 Y123.945 E0.03774
G1 X162.629 Y123.978 E0.00488
G1 X162.781 Y123.945 E0.00488
G1 X163.985 Y123.945 E0.03774
G1 X164.138 Y123.978 E0.00488
G1 X164.290 Y123.945 E0.00488
G1 X165.494 Y123.945 E0.03774
G1 X165.646 Y123.978 E0.00488
G1 X165.798 Y123.945 E0.00488
G1 X167.002 Y123.945 E0.03774
G1 X167.154 Y123.978 E0.00488
G1 X167.306 Y123.945 E0.00488
G1 X168.510 Y123.945 E0.03774
G1 X168.662 Y123.978 E0.00488
G1 X168.815 Y123.945 E0.00488
G1 X170.019 Y123.945 E0.03774
G1 X170.171 Y123.978 E0.00488
G1 X170.323 Y123.945 E0.00488
G1 X171.527 Y123.945 E0.03774
G1 X171.679 Y123.978 E0.00488
G1 X171.831 Y123.945 E0.00488
G1 X173.035 Y123.945 E0.03774
G1 X173.187 Y123.978 E0.00488
G1 X173.340 Y123.945 E0.00488
G1 X174.544 Y123.945 E0.03774
G1 X174.696 Y123.978 E0.00488
G1 X174.848 Y123.945 E0.00488
G1 X176.052 Y123.945 E0.03774
G1 X176.204 Y123.978 E0.00488
G1 X176.356 Y123.945 E0.00488
G1 X177.560 Y123.945 E0.03774
G1 X177.712 Y123.978 E0.00488
G1 X177.865 Y123.945 E0.00488
G1 X179.068 Y123.945 E0.03774
